X: 11692
Q: "Lively."
M: C
L: 1/8
K: A
E |\
(cA)fe (^dB)ba | (gf)e^d e2ze |\
e2dc d2ba |
(gf)ed c2^ee |\
(f=e)dc (BA)dc | (BA)GA F3G |\
(ca)ef (ea)ef | (ed)cB A3 |]


